X:16
T:Menuet
M:3
L:1/8
K:C
%%staves [1 3]
V:1
ef | g2G2!!B2 | c2def2 | e2d2c2 | !!d4ef | g2G2!!B2 | c2Bcd2 | cB!!A3G | G4:: dc |
BcdcBA | G4gf | efgfed | c2d2e2 | A2B2c2 | !!B2G2g2 | fe!!d3c | c4 :|
V:2
z2 | C2C2B,2 | A,2(B,2G,2) | C2B,2A,2 | (G,A,)G,F,E,D, | C,2C,2B,,2 | A,,2G,,A,,B,,2 | C,2!!D,2D,,2 | G,,4 :: z2 |
z2z2G,F, | E,F,G,F,E,D, | C,4CB, | A,G,F,2E,2 | F,E,D,2C,2 | (G,2F,2)E,2 | F,2G,2G,,2 | C,4 :|
V:3
z2 | c'2c'2b2 | a2(b2g2) | c'2b2a2 | (ga)gfed | c2c2B2 | A2GAB2 | c2!!d2d2 | G4 :: z2 |
z2z2gf | efgfed | c4c'b | agf2e2 | fed2c2 | (g2f2)e2 | f2g2G2 | c4 :|
